lib/preview/nrk-logo-preview-nrk-p13-title-below-on-light.svg

<svg width="35" height="31" viewBox="0 0 35 31" fill="none" xmlns="http://www.w3.org/2000/svg">
<path d="M0 12.9995V1.00054H3.93719V12.9995H0ZM9.29381 2.91023L11.5581 12.9995H7.24917L4.54549 1.00054H6.96218C7.51635 0.993349 8.05406 1.1887 8.4745 1.54984C8.89562 1.89583 9.18495 2.37615 9.29381 2.91023ZM12.1495 12.9995V1.00054H16.0867V12.9995H12.1495ZM19.0605 5.56355C18.6362 5.56769 18.2188 5.45668 17.8525 5.24242C17.4912 5.03357 17.1911 4.73341 16.9823 4.37205C16.7678 4.00578 16.6568 3.58821 16.661 3.16377C16.6561 2.74191 16.7672 2.32683 16.9823 1.96388C17.1933 1.60644 17.4931 1.30954 17.8525 1.10197C18.2189 0.887953 18.6362 0.776965 19.0605 0.780835C19.4822 0.776293 19.8971 0.887379 20.2602 1.10197C20.616 1.31136 20.9127 1.60801 21.122 1.96388C21.3368 2.32693 21.4479 2.74194 21.4433 3.16377C21.4473 3.58818 21.3363 4.00568 21.122 4.37205C20.9149 4.73183 20.6179 5.03173 20.2602 5.24242C19.8971 5.45743 19.4819 5.56854 19.0599 5.56355H19.0605ZM22.0516 12.9995V1.00054H25.9892V12.9995H22.0516ZM30.9737 7.55768C30.9848 7.56933 31.0693 7.70733 31.2272 7.97172C31.3851 8.23611 31.5906 8.57414 31.8439 8.98574C32.0974 9.39716 32.3649 9.83371 32.6463 10.2955C32.9278 10.7572 33.1926 11.1938 33.4408 11.6052C33.6881 12.0166 33.9697 12.4814 34.2857 12.9995H29.9598C29.6893 12.5601 29.4441 12.1629 29.2245 11.808C29.0048 11.4531 28.7713 11.07 28.5238 10.6588C28.2758 10.248 28.0306 9.84799 27.7882 9.45892C27.5458 9.06984 27.3375 8.72906 27.1633 8.43651C26.9883 8.14377 26.8671 7.94657 26.7997 7.84499C26.6325 7.5929 26.5336 7.30175 26.5127 7C26.5294 6.71039 26.6226 6.43043 26.7828 6.18856C26.8504 6.0759 26.9743 5.87588 27.1545 5.58858C27.3348 5.30128 27.546 4.9605 27.7882 4.56617C28.0304 4.17184 28.2756 3.76905 28.5238 3.35783C28.772 2.9466 29.0056 2.56069 29.2245 2.20016C29.4445 1.84 29.6897 1.44004 29.9598 1.00027H34.2857L30.9396 6.45895C30.8361 6.62102 30.7777 6.8078 30.7706 7C30.7818 7.20177 30.8522 7.39577 30.9731 7.55768H30.9737Z" fill="#0A2343"/>
<path d="M8.1448 19.6965C7.93704 19.3761 7.6704 19.098 7.35904 18.877C7.01194 18.6339 6.62638 18.4511 6.21848 18.3362C5.72334 18.1996 5.21121 18.1342 4.69762 18.1422H0V30.1398H1.7743V25.8308H4.8328C5.52318 25.8415 6.20449 25.6725 6.80987 25.3404C7.3901 25.0192 7.87199 24.5462 8.20393 23.972C8.55982 23.3383 8.73791 22.6202 8.71934 21.8936C8.72086 21.5009 8.67549 21.1095 8.58417 20.7276C8.49645 20.3618 8.34792 20.0132 8.1448 19.6965ZM6.57334 23.3383C6.3461 23.6946 6.01183 23.9696 5.61856 24.1241C5.14122 24.3047 4.63328 24.3908 4.12308 24.3776H1.7743V19.6126H4.35967C4.85352 19.5939 5.34505 19.6893 5.79603 19.8914C6.15483 20.0648 6.44816 20.3492 6.63247 20.7025C6.82775 21.0988 6.92345 21.5367 6.91128 21.9783C6.93067 22.4546 6.81341 22.9265 6.57334 23.3383Z" fill="#0A2343"/>
<path d="M12.3268 18.5393C12.0846 18.6688 11.8481 18.79 11.6174 18.9026C11.3866 19.0153 11.1528 19.1279 10.9158 19.2406C10.6795 19.3532 10.4372 19.4546 10.1892 19.5447C9.94118 19.6348 9.67659 19.725 9.39533 19.8151L9.76676 21.2514C10.1047 21.15 10.4117 21.0486 10.6877 20.9472C10.958 20.8481 11.2231 20.7353 11.4819 20.6093C11.7356 20.4854 11.989 20.3502 12.2423 20.2038L12.2511 20.1987V30.1403H14.0082V18.1427H13.096C12.8254 18.2772 12.569 18.4094 12.3268 18.5393Z" fill="#0A2343"/>
<path d="M23.2175 25.6446C23.1003 25.3073 22.9165 24.9969 22.6768 24.7321C22.4278 24.4644 22.1256 24.2516 21.7896 24.1072C21.4048 23.9415 20.9978 23.8333 20.5815 23.7861V23.7351C21.0868 23.5746 21.557 23.3194 21.9671 22.9832C22.3329 22.6832 22.6346 22.3126 22.8542 21.8936C23.0617 21.4914 23.169 21.045 23.1668 20.5924C23.1744 20.2082 23.0873 19.828 22.9133 19.4853C22.7351 19.1541 22.4802 18.8702 22.1699 18.6576C21.809 18.4119 21.4047 18.237 20.9786 18.1422C20.4547 18.0234 19.9188 17.9667 19.3817 17.9732C19.0283 17.9744 18.6755 17.9999 18.3256 18.0495C17.9635 18.0992 17.605 18.1726 17.2526 18.2692C16.9134 18.361 16.5848 18.4884 16.2725 18.6494L16.509 19.9844C16.7567 19.883 16.9961 19.7956 17.2272 19.7222C17.4583 19.6487 17.6808 19.5896 17.8947 19.5447C18.1085 19.5 18.3169 19.4663 18.5199 19.4436C18.7163 19.4214 18.9137 19.4102 19.1113 19.4098C19.4688 19.404 19.8259 19.4379 20.1759 19.5109C20.4296 19.5621 20.6707 19.6626 20.8856 19.8069C21.0607 19.9303 21.1982 20.0999 21.2827 20.2967C21.372 20.5195 21.4151 20.758 21.4095 20.998C21.4143 21.3277 21.3358 21.6532 21.1813 21.9445C21.0242 22.2316 20.8048 22.4799 20.5392 22.6712C20.2397 22.8852 19.9052 23.0453 19.5507 23.1443C19.1384 23.2609 18.7117 23.3178 18.2833 23.3132H17.9623L17.7595 24.6316H18.3002C18.7989 24.6247 19.297 24.6672 19.7873 24.7583C20.1543 24.824 20.5064 24.9557 20.8265 25.147C21.0882 25.3064 21.3014 25.5343 21.4432 25.806C21.5845 26.098 21.654 26.4195 21.646 26.7438C21.6546 27.0718 21.5912 27.3978 21.4601 27.6986C21.3344 27.9653 21.1388 28.1929 20.894 28.3573C20.6013 28.5482 20.2742 28.6802 19.9309 28.746C19.4776 28.8368 19.0159 28.8793 18.5537 28.8727C18.3847 28.8727 18.2182 28.8673 18.0552 28.8561C17.8921 28.8448 17.7198 28.8279 17.5398 28.8051C17.3599 28.7823 17.1706 28.7522 16.9737 28.7124C16.7769 28.6727 16.5597 28.6254 16.3231 28.5685L16.1035 30.0049C16.3511 30.0499 16.5905 30.0922 16.8216 30.1316C17.0528 30.171 17.2809 30.2048 17.506 30.233C17.7313 30.2608 17.951 30.2804 18.165 30.2918C18.3791 30.3033 18.5875 30.309 18.7903 30.309C19.3288 30.3133 19.8664 30.2651 20.3956 30.1651C20.8452 30.0814 21.2806 29.9335 21.6883 29.726C22.0441 29.5452 22.3646 29.302 22.6345 29.0079C22.8885 28.7253 23.0838 28.395 23.2091 28.0362C23.3431 27.6419 23.4088 27.2276 23.4034 26.8111C23.4085 26.4145 23.3457 26.02 23.2175 25.6446Z" fill="#0A2343"/>
</svg>

<svg xmlns="http://www.w3.org/2000/svg" viewBox="0 0 35 31"><path fill="#0A2343" d="M0 13V1h3.937v12H0ZM9.294 2.91 11.558 13H7.25L4.545 1h2.417a2.276 2.276 0 0 1 1.513.55c.42.346.71.826.819 1.36ZM12.149 13V1h3.938v12h-3.938Zm6.912-7.436a2.382 2.382 0 0 1-2.4-2.4 2.301 2.301 0 0 1 .321-1.2 2.41 2.41 0 0 1 3.278-.862c.356.21.653.506.862.862.215.363.326.778.321 1.2a2.35 2.35 0 0 1-.321 1.208 2.4 2.4 0 0 1-.862.87 2.302 2.302 0 0 1-1.2.322Zm2.99 7.435V1.002h3.938v11.998h-3.937Zm8.923-5.441c.01.011.095.15.253.414s.364.602.617 1.014a311.524 311.524 0 0 1 1.597 2.62c.247.41.529.875.845 1.393H29.96c-.27-.439-.516-.836-.736-1.191-.22-.355-.453-.738-.7-1.15-.248-.41-.493-.81-.736-1.2-.242-.388-.45-.729-.625-1.021a17.98 17.98 0 0 0-.363-.592A1.747 1.747 0 0 1 26.513 7c.016-.29.11-.57.27-.811.067-.113.191-.313.371-.6a182.36 182.36 0 0 0 1.37-2.23l.7-1.159.736-1.2h4.326L30.94 6.46a1.08 1.08 0 0 0-.17.541c.012.202.082.396.203.558ZM8.145 19.697a3.02 3.02 0 0 0-.786-.82 3.77 3.77 0 0 0-1.14-.54 5.402 5.402 0 0 0-1.521-.195H0V30.14h1.774v-4.31h3.059c.69.012 1.371-.157 1.977-.49a3.655 3.655 0 0 0 1.394-1.368 4.034 4.034 0 0 0 .515-2.078 4.931 4.931 0 0 0-.135-1.166 3.362 3.362 0 0 0-.44-1.032Zm-1.572 3.641a2 2 0 0 1-.954.786c-.478.18-.986.267-1.496.254H1.774v-4.765H4.36c.494-.02.985.076 1.436.278.359.174.652.458.836.812.196.396.291.834.28 1.275.019.477-.099.948-.339 1.36ZM12.327 18.54c-.242.129-.479.25-.71.363-.23.112-.464.225-.701.338a8.188 8.188 0 0 1-.727.304c-.248.09-.512.18-.794.27l.372 1.436c.338-.101.645-.202.92-.304.271-.099.536-.212.795-.338.254-.124.507-.259.76-.405l.01-.005v9.941h1.756V18.143h-.912c-.27.134-.527.266-.77.396ZM23.218 25.645a2.661 2.661 0 0 0-.541-.913 2.63 2.63 0 0 0-.887-.625 4.271 4.271 0 0 0-1.209-.32v-.052c.506-.16.976-.416 1.386-.752.366-.3.668-.67.887-1.09.208-.402.315-.848.313-1.3a2.343 2.343 0 0 0-.254-1.108 2.357 2.357 0 0 0-.743-.827 3.447 3.447 0 0 0-1.191-.516 6.846 6.846 0 0 0-1.597-.169 8.358 8.358 0 0 0-2.13.296c-.339.092-.667.22-.98.38l.237 1.335c.248-.101.487-.188.718-.262a6.848 6.848 0 0 1 1.293-.278c.196-.023.394-.034.591-.034a4.83 4.83 0 0 1 1.065.1c.254.052.495.153.71.297.175.123.312.293.397.49.089.223.132.461.127.701.004.33-.074.655-.229.947a2.193 2.193 0 0 1-.642.726c-.3.214-.634.374-.988.473a4.48 4.48 0 0 1-1.268.17h-.32l-.204 1.318h.541c.499-.007.997.035 1.487.126.367.066.72.198 1.04.389.261.16.474.387.616.659.141.292.211.613.203.938.009.328-.055.654-.186.955a1.631 1.631 0 0 1-.566.658 2.69 2.69 0 0 1-.963.389c-.453.09-.915.133-1.377.127a7.28 7.28 0 0 1-1.014-.068 7.816 7.816 0 0 1-.566-.093 18.01 18.01 0 0 1-.65-.143l-.22 1.436c.247.045.486.087.718.127.23.039.459.073.684.101.225.028.445.047.659.059.214.011.422.017.625.017a8.289 8.289 0 0 0 1.606-.144c.45-.084.885-.232 1.292-.439.356-.18.677-.424.947-.718.253-.283.449-.613.574-.972.134-.394.2-.808.194-1.225a3.471 3.471 0 0 0-.185-1.166Z"/></svg>
